X:91
T:Opera Hornpipe. RHu.091
S:R.Hughes MS,1823,Whitchurch,Shrops.
R:.Hornpipe
A:Whitchurch, Shropshire
Z:Neil Brookes 2006
M:4/4
L:1/8
Q:1/2=80
K:D
F>G|A>Fd>B A>Fd>A|B>cd>B A2 F>G|A>Fd>B A>Fd>B|A>FA>F E2 F>G|!
A>Fd>B A>Fd>A|B>cd>B A2 d>e|f>da>d g>ed>c|d2d2d2:|!
|:d>e|f>df>d f>da>f|g>fe>d c>BA>G|F>Ad>A A>df>d|e>dc>d e2 d>e|!
f>df>d f>da>f|g>fe>d c>BA>G|F>Ad>A Ggec|d2d2d2:|

